X:1
T:Down in Yon Forest
T: (Cherokee County, North Carolina
T:collected by John Jacob Niles)
M:2/2
L:1/4
K:G
E|EBGB/B/|
w:Down in yon for est_
(F/A/)(G/F/)EE|AABA|G2FB/B/|
w:be_ a_ hall, Sing May, Queen May, sing Ma ry! "Tis_
E/E/B/B/G/G/B/B/|(F/A/)(G/F/)EE|
w:co ver lidd ed o ver with_ pur_ ple and pall. Sing
M:3/2
L:1/4
HeBcB/A/(G/A/)F|
w:all good men for the new_ born 
M:2/2
L:1/4
E2E2||
w:Ba by!